actions/48/document-export.svg

<?xml version="1.0" encoding="UTF-8" standalone="no"?>
<!-- Created with Inkscape (http://www.inkscape.org/) -->

<svg
   xmlns:svg="http://www.w3.org/2000/svg"
   xmlns="http://www.w3.org/2000/svg"
   xmlns:xlink="http://www.w3.org/1999/xlink"
   version="1.0"
   width="48"
   height="48"
   id="svg3196">
  <defs
     id="defs3198">
    <radialGradient
       cx="605.71429"
       cy="486.64789"
       r="117.14286"
       fx="605.71429"
       fy="486.64789"
       id="radialGradient4004"
       xlink:href="#linearGradient5060"
       gradientUnits="userSpaceOnUse"
       gradientTransform="matrix(0.02409717,0,0,0.01537476,26.477584,38.629039)" />
    <linearGradient
       id="linearGradient5060">
      <stop
         id="stop5062"
         style="stop-color:black;stop-opacity:1"
         offset="0" />
      <stop
         id="stop5064"
         style="stop-color:black;stop-opacity:0"
         offset="1" />
    </linearGradient>
    <radialGradient
       cx="605.71429"
       cy="486.64789"
       r="117.14286"
       fx="605.71429"
       fy="486.64789"
       id="radialGradient4002"
       xlink:href="#linearGradient5060"
       gradientUnits="userSpaceOnUse"
       gradientTransform="matrix(-0.02409717,0,0,0.01537476,21.522412,38.629039)" />
    <linearGradient
       id="linearGradient5048">
      <stop
         id="stop5050"
         style="stop-color:black;stop-opacity:0"
         offset="0" />
      <stop
         id="stop5056"
         style="stop-color:black;stop-opacity:1"
         offset="0.5" />
      <stop
         id="stop5052"
         style="stop-color:black;stop-opacity:0"
         offset="1" />
    </linearGradient>
    <linearGradient
       x1="302.85715"
       y1="366.64789"
       x2="302.85715"
       y2="609.50507"
       id="linearGradient4000"
       xlink:href="#linearGradient5048"
       gradientUnits="userSpaceOnUse"
       gradientTransform="matrix(0.0704142,0,0,0.01537476,-1.4497047,38.629007)" />
    <linearGradient
       id="linearGradient8589">
      <stop
         id="stop8591"
         style="stop-color:#fefefe;stop-opacity:1"
         offset="0" />
      <stop
         id="stop8593"
         style="stop-color:#cbcbcb;stop-opacity:1"
         offset="1" />
    </linearGradient>
    <linearGradient
       x1="32.892288"
       y1="8.0590115"
       x2="36.358372"
       y2="5.4565363"
       id="linearGradient2814"
       xlink:href="#linearGradient8589"
       gradientUnits="userSpaceOnUse"
       gradientTransform="matrix(0.9976985,0,0,1.0642049,-2.8361991,-0.1392616)" />
    <linearGradient
       id="linearGradient3931">
      <stop
         id="stop3933"
         style="stop-color:#8d8f8a;stop-opacity:1"
         offset="0" />
      <stop
         id="stop3935"
         style="stop-color:#cbcbcb;stop-opacity:1"
         offset="1" />
    </linearGradient>
    <linearGradient
       x1="-51.786404"
       y1="50.786446"
       x2="-51.786404"
       y2="2.9062471"
       id="linearGradient2812"
       xlink:href="#linearGradient3931"
       gradientUnits="userSpaceOnUse"
       gradientTransform="matrix(0.8074968,0,0,0.9358511,56.410231,-1.1144816)" />
    <linearGradient
       id="linearGradient3600">
      <stop
         id="stop3602"
         style="stop-color:#f4f4f4;stop-opacity:1"
         offset="0" />
      <stop
         id="stop3604"
         style="stop-color:#dbdbdb;stop-opacity:1"
         offset="1" />
    </linearGradient>
    <linearGradient
       x1="25.132275"
       y1="6.7287393"
       x2="25.132275"
       y2="47.013336"
       id="linearGradient2810"
       xlink:href="#linearGradient3600"
       gradientUnits="userSpaceOnUse"
       gradientTransform="translate(-2.9999991,-1.6e-6)" />
    <linearGradient
       id="linearGradient3914">
      <stop
         id="stop3916"
         style="stop-color:#c02cbb;stop-opacity:1"
         offset="0" />
      <stop
         id="stop3918"
         style="stop-color:#b329ae;stop-opacity:0.49803922"
         offset="0.79722267" />
      <stop
         id="stop3920"
         style="stop-color:#982394;stop-opacity:0"
         offset="1" />
    </linearGradient>
    <linearGradient
       x1="36.5"
       y1="36"
       x2="-0.097514458"
       y2="36"
       id="linearGradient4367"
       xlink:href="#linearGradient3914"
       gradientUnits="userSpaceOnUse"
       gradientTransform="matrix(0.7241542,0,0,0.7359927,16.978684,11.204435)" />
    <linearGradient
       id="linearGradient3698">
      <stop
         id="stop3700"
         style="stop-color:#ce7ecc;stop-opacity:1"
         offset="0" />
      <stop
         id="stop3702"
         style="stop-color:#c056bc;stop-opacity:0.81568629"
         offset="0.76278943" />
      <stop
         id="stop3704"
         style="stop-color:#f8c9f7;stop-opacity:0"
         offset="1" />
    </linearGradient>
    <linearGradient
       x1="23.996828"
       y1="15.5"
       x2="-0.073089309"
       y2="15.5"
       id="linearGradient4365"
       xlink:href="#linearGradient3698"
       gradientUnits="userSpaceOnUse"
       gradientTransform="matrix(0.7241542,0,0,0.7359927,16.978684,11.204435)" />
    <linearGradient
       id="linearGradient2187">
      <stop
         id="stop2189"
         style="stop-color:white;stop-opacity:0.64341086"
         offset="0" />
      <stop
         id="stop2191"
         style="stop-color:white;stop-opacity:0"
         offset="1" />
    </linearGradient>
    <linearGradient
       x1="20.483631"
       y1="12.820101"
       x2="20.483631"
       y2="-0.43754432"
       id="linearGradient4362"
       xlink:href="#linearGradient2187"
       gradientUnits="userSpaceOnUse"
       gradientTransform="matrix(0,-0.8625289,0.8486552,0,18.269706,51.022455)" />
  </defs>
  <g
     id="layer1">
    <g
       transform="matrix(0.9561265,0,0,0.9561265,1.052964,2.1059284)"
       id="g2877"
       style="display:inline">
      <rect
         width="34"
         height="3.7338707"
         x="7"
         y="44.266129"
         id="rect2879"
         style="opacity:0.40206185;fill:url(#linearGradient4000);fill-opacity:1;fill-rule:nonzero;stroke:none;stroke-width:1;marker:none;visibility:visible;display:inline;overflow:visible" />
      <path
         d="m 7,44.266291 c 0,0 0,3.733665 0,3.733665 -1.2409448,0.007 -3,-0.836525 -3,-1.867073 0,-1.030547 1.3848007,-1.866591 3,-1.866592 z"
         id="path2881"
         style="opacity:0.40206185;fill:url(#radialGradient4002);fill-opacity:1;fill-rule:nonzero;stroke:none;stroke-width:1;marker:none;visibility:visible;display:inline;overflow:visible" />
      <path
         d="m 41,44.266291 c 0,0 0,3.733665 0,3.733665 1.240944,0.007 3,-0.836525 3,-1.867073 0,-1.030547 -1.384801,-1.866591 -3,-1.866592 z"
         id="path2883"
         style="opacity:0.40206185;fill:url(#radialGradient4004);fill-opacity:1;fill-rule:nonzero;stroke:none;stroke-width:1;marker:none;visibility:visible;display:inline;overflow:visible" />
    </g>
    <g
       transform="translate(2.999999,0)"
       id="g2805"
       style="display:inline">
      <path
         d="m 3.4999609,1.4999584 c 8.0202901,0 16.0405901,0 24.0608801,0 1.40694,0.48538 8.96546,6.01514 10.9392,9.8439596 0,11.7187 0,23.43741 0,35.15612 -11.66669,0 -23.33339,0 -35.0000801,0 0,-15.00003 0,-30.00005 0,-45.0000796 z"
         id="rect2594"
         style="fill:url(#linearGradient2810);fill-opacity:1;stroke:url(#linearGradient2812);stroke-width:0.9999218;stroke-linecap:butt;stroke-linejoin:round;stroke-miterlimit:4;stroke-opacity:1;stroke-dasharray:none;stroke-dashoffset:0" />
      <path
         d="m 26.767541,1.8146184 c 0.6375,4.12506 0.60946,9.0344696 0.60946,9.0344696 0,0 4.86973,-0.1115 10.88525,0.59393 -4.89688,-4.7877996 -8.32845,-6.7841796 -11.49471,-9.6283996 z"
         id="path8596"
         style="fill:black;fill-opacity:0.32663317;fill-rule:evenodd;stroke:black;stroke-width:0.5;stroke-linecap:butt;stroke-linejoin:round;stroke-miterlimit:4;stroke-opacity:0.16582917;stroke-dasharray:none;display:inline" />
      <path
         d="m 26.657921,1.5079284 c 1.41222,4.1225 1.29509,8.2607 1.29509,8.2607 0,0 7.833,0.5473096 10.17514,1.5939296 0,-1.7111396 -9.2975,-9.8254196 -11.47023,-9.8546296 z"
         id="path12038"
         style="fill:url(#linearGradient2814);fill-opacity:1;fill-rule:evenodd;stroke:none;display:inline" />
    </g>
    <path
       d="M 35.5,13.497467 47.502533,24.238554 35.5,35.502533 c 0,10e-7 0,-5.916832 0,-6.002533 l -20.002533,0 0,-10 20.002533,0 0,-6.002533 z"
       id="path1432"
       style="fill:url(#linearGradient4365);fill-opacity:1;fill-rule:nonzero;stroke:url(#linearGradient4367);stroke-width:0.99493349;stroke-linecap:round;stroke-linejoin:round;stroke-miterlimit:7;stroke-opacity:1;stroke-dasharray:none;stroke-dashoffset:0;marker:none;visibility:visible;display:block;overflow:visible" />
    <path
       d="m 36.5,15.746678 c 0,0 9.5,8.491876 9.5,8.491876 l -9.5,8.991332 0,-4.729886 -18.130015,0 -0.04287,-8 18.172886,0 0,-4.753322 z"
       id="path2177"
       style="opacity:0.4;fill:none;stroke:url(#linearGradient4362);stroke-width:0.99493349;stroke-linecap:butt;stroke-linejoin:miter;stroke-miterlimit:7;stroke-opacity:1;stroke-dasharray:none;stroke-dashoffset:0;marker:none;visibility:visible;display:block;overflow:visible" />
  </g>
</svg>

<?xml version="1.0" encoding="UTF-8" standalone="no"?>
<!-- Created with Inkscape (http://www.inkscape.org/) -->
<svg
   xmlns:svg="http://www.w3.org/2000/svg"
   xmlns="http://www.w3.org/2000/svg"
   xmlns:xlink="http://www.w3.org/1999/xlink"
   version="1.0"
   width="48"
   height="48"
   id="svg3196">
  <defs
     id="defs3198">
    <radialGradient
       cx="605.71429"
       cy="486.64789"
       r="117.14286"
       fx="605.71429"
       fy="486.64789"
       id="radialGradient4004"
       xlink:href="#linearGradient5060"
       gradientUnits="userSpaceOnUse"
       gradientTransform="matrix(2.4097175e-2,0,0,1.5374761e-2,26.477584,38.629039)" />
    <linearGradient
       id="linearGradient5060">
      <stop
         id="stop5062"
         style="stop-color:#000000;stop-opacity:1"
         offset="0" />
      <stop
         id="stop5064"
         style="stop-color:#000000;stop-opacity:0"
         offset="1" />
    </linearGradient>
    <radialGradient
       cx="605.71429"
       cy="486.64789"
       r="117.14286"
       fx="605.71429"
       fy="486.64789"
       id="radialGradient4002"
       xlink:href="#linearGradient5060"
       gradientUnits="userSpaceOnUse"
       gradientTransform="matrix(-2.409717e-2,0,0,1.5374761e-2,21.522412,38.629039)" />
    <linearGradient
       id="linearGradient5048">
      <stop
         id="stop5050"
         style="stop-color:#000000;stop-opacity:0"
         offset="0" />
      <stop
         id="stop5056"
         style="stop-color:#000000;stop-opacity:1"
         offset="0.5" />
      <stop
         id="stop5052"
         style="stop-color:#000000;stop-opacity:0"
         offset="1" />
    </linearGradient>
    <linearGradient
       x1="302.85715"
       y1="366.64789"
       x2="302.85715"
       y2="609.50507"
       id="linearGradient4000"
       xlink:href="#linearGradient5048"
       gradientUnits="userSpaceOnUse"
       gradientTransform="matrix(7.0414201e-2,0,0,1.5374761e-2,-1.4497047,38.629007)" />
    <linearGradient
       id="linearGradient8589">
      <stop
         id="stop8591"
         style="stop-color:#fefefe;stop-opacity:1"
         offset="0" />
      <stop
         id="stop8593"
         style="stop-color:#cbcbcb;stop-opacity:1"
         offset="1" />
    </linearGradient>
    <linearGradient
       x1="32.892288"
       y1="8.0590115"
       x2="36.358372"
       y2="5.4565363"
       id="linearGradient2814"
       xlink:href="#linearGradient8589"
       gradientUnits="userSpaceOnUse"
       gradientTransform="matrix(0.9976985,0,0,1.0642049,-2.8361991,-0.1392616)" />
    <linearGradient
       id="linearGradient3931">
      <stop
         id="stop3933"
         style="stop-color:#8d8f8a;stop-opacity:1"
         offset="0" />
      <stop
         id="stop3935"
         style="stop-color:#cbcbcb;stop-opacity:1"
         offset="1" />
    </linearGradient>
    <linearGradient
       x1="-51.786404"
       y1="50.786446"
       x2="-51.786404"
       y2="2.9062471"
       id="linearGradient2812"
       xlink:href="#linearGradient3931"
       gradientUnits="userSpaceOnUse"
       gradientTransform="matrix(0.8074968,0,0,0.9358511,56.410231,-1.1144816)" />
    <linearGradient
       id="linearGradient3600">
      <stop
         id="stop3602"
         style="stop-color:#f4f4f4;stop-opacity:1"
         offset="0" />
      <stop
         id="stop3604"
         style="stop-color:#dbdbdb;stop-opacity:1"
         offset="1" />
    </linearGradient>
    <linearGradient
       x1="25.132275"
       y1="6.7287393"
       x2="25.132275"
       y2="47.013336"
       id="linearGradient2810"
       xlink:href="#linearGradient3600"
       gradientUnits="userSpaceOnUse"
       gradientTransform="translate(-2.9999991,-1.6e-6)" />
    <linearGradient
       id="linearGradient3914">
      <stop
         id="stop3916"
         style="stop-color:#c02cbb;stop-opacity:1"
         offset="0" />
      <stop
         id="stop3918"
         style="stop-color:#b329ae;stop-opacity:0.49803922"
         offset="0.79722267" />
      <stop
         id="stop3920"
         style="stop-color:#982394;stop-opacity:0"
         offset="1" />
    </linearGradient>
    <linearGradient
       x1="36.5"
       y1="36"
       x2="-0.097514458"
       y2="36"
       id="linearGradient4367"
       xlink:href="#linearGradient3914"
       gradientUnits="userSpaceOnUse"
       gradientTransform="matrix(0.7241542,0,0,0.7359927,16.978684,11.204435)" />
    <linearGradient
       id="linearGradient3698">
      <stop
         id="stop3700"
         style="stop-color:#ce7ecc;stop-opacity:1"
         offset="0" />
      <stop
         id="stop3702"
         style="stop-color:#c056bc;stop-opacity:0.81568629"
         offset="0.76278943" />
      <stop
         id="stop3704"
         style="stop-color:#f8c9f7;stop-opacity:0"
         offset="1" />
    </linearGradient>
    <linearGradient
       x1="23.996828"
       y1="15.5"
       x2="-0.073089309"
       y2="15.5"
       id="linearGradient4365"
       xlink:href="#linearGradient3698"
       gradientUnits="userSpaceOnUse"
       gradientTransform="matrix(0.7241542,0,0,0.7359927,16.978684,11.204435)" />
    <linearGradient
       id="linearGradient2187">
      <stop
         id="stop2189"
         style="stop-color:#ffffff;stop-opacity:0.64341086"
         offset="0" />
      <stop
         id="stop2191"
         style="stop-color:#ffffff;stop-opacity:0"
         offset="1" />
    </linearGradient>
    <linearGradient
       x1="20.483631"
       y1="12.820101"
       x2="20.483631"
       y2="-0.43754432"
       id="linearGradient4362"
       xlink:href="#linearGradient2187"
       gradientUnits="userSpaceOnUse"
       gradientTransform="matrix(0,-0.8625289,0.8486552,0,18.269706,51.022455)" />
  </defs>
  <g
     id="layer1">
    <g
       transform="matrix(0.9561265,0,0,0.9561265,1.052964,2.1059284)"
       id="g2877"
       style="display:inline">
      <rect
         width="34"
         height="3.7338707"
         x="7"
         y="44.266129"
         id="rect2879"
         style="opacity:0.40206185;fill:url(#linearGradient4000);fill-opacity:1;fill-rule:nonzero;stroke:none;stroke-width:1;stroke-linecap:round;stroke-linejoin:miter;marker:none;marker-start:none;marker-mid:none;marker-end:none;stroke-miterlimit:4;stroke-dasharray:none;stroke-dashoffset:0;stroke-opacity:1;visibility:visible;display:inline;overflow:visible" />
      <path
         d="M 7,44.266291 C 7,44.266291 7,47.999956 7,47.999956 C 5.7590552,48.006985 4,47.163431 4,46.132883 C 4,45.102336 5.3848007,44.266292 7,44.266291 z"
         id="path2881"
         style="opacity:0.40206185;fill:url(#radialGradient4002);fill-opacity:1;fill-rule:nonzero;stroke:none;stroke-width:1;stroke-linecap:round;stroke-linejoin:miter;marker:none;marker-start:none;marker-mid:none;marker-end:none;stroke-miterlimit:4;stroke-dasharray:none;stroke-dashoffset:0;stroke-opacity:1;visibility:visible;display:inline;overflow:visible" />
      <path
         d="M 41,44.266291 C 41,44.266291 41,47.999956 41,47.999956 C 42.240944,48.006985 44,47.163431 44,46.132883 C 44,45.102336 42.615199,44.266292 41,44.266291 z"
         id="path2883"
         style="opacity:0.40206185;fill:url(#radialGradient4004);fill-opacity:1;fill-rule:nonzero;stroke:none;stroke-width:1;stroke-linecap:round;stroke-linejoin:miter;marker:none;marker-start:none;marker-mid:none;marker-end:none;stroke-miterlimit:4;stroke-dasharray:none;stroke-dashoffset:0;stroke-opacity:1;visibility:visible;display:inline;overflow:visible" />
    </g>
    <g
       transform="translate(2.999999,0)"
       id="g2805"
       style="display:inline">
      <path
         d="M 3.4999609,1.4999584 C 11.520251,1.4999584 19.540551,1.4999584 27.560841,1.4999584 C 28.967781,1.9853384 36.526301,7.5150984 38.500041,11.343918 C 38.500041,23.062618 38.500041,34.781328 38.500041,46.500038 C 26.833351,46.500038 15.166651,46.500038 3.4999609,46.500038 C 3.4999609,31.500008 3.4999609,16.499988 3.4999609,1.4999584 z"
         id="rect2594"
         style="fill:url(#linearGradient2810);fill-opacity:1;stroke:url(#linearGradient2812);stroke-width:0.9999218;stroke-linecap:butt;stroke-linejoin:round;stroke-miterlimit:4;stroke-dasharray:none;stroke-dashoffset:0;stroke-opacity:1" />
      <path
         d="M 26.767541,1.8146184 C 27.405041,5.9396784 27.377001,10.849088 27.377001,10.849088 C 27.377001,10.849088 32.246731,10.737588 38.262251,11.443018 C 33.365371,6.6552184 29.933801,4.6588384 26.767541,1.8146184 z"
         id="path8596"
         style="fill:#000000;fill-opacity:0.32663317;fill-rule:evenodd;stroke:#000000;stroke-width:0.5;stroke-linecap:butt;stroke-linejoin:round;stroke-miterlimit:4;stroke-dasharray:none;stroke-opacity:0.16582917;display:inline" />
      <path
         d="M 26.657921,1.5079284 C 28.070141,5.6304284 27.953011,9.7686284 27.953011,9.7686284 C 27.953011,9.7686284 35.786011,10.315938 38.128151,11.362558 C 38.128151,9.6514184 28.830651,1.5371384 26.657921,1.5079284 z"
         id="path12038"
         style="fill:url(#linearGradient2814);fill-opacity:1;fill-rule:evenodd;stroke:none;stroke-width:1px;stroke-linecap:butt;stroke-linejoin:miter;stroke-opacity:1;display:inline" />
    </g>
    <path
       d="M 35.5,13.497467 L 47.502533,24.238554 L 35.5,35.502533 C 35.5,35.502534 35.5,29.585701 35.5,29.5 L 15.497467,29.5 L 15.497467,19.5 L 35.5,19.5 L 35.5,13.497467 z"
       id="path1432"
       style="fill:url(#linearGradient4365);fill-opacity:1;fill-rule:nonzero;stroke:url(#linearGradient4367);stroke-width:0.99493349;stroke-linecap:round;stroke-linejoin:round;marker:none;marker-start:none;marker-mid:none;marker-end:none;stroke-miterlimit:7;stroke-dasharray:none;stroke-dashoffset:0;stroke-opacity:1;visibility:visible;display:block;overflow:visible" />
    <path
       d="M 36.5,15.746678 C 36.5,15.746678 46,24.238554 46,24.238554 L 36.5,33.229886 L 36.5,28.5 L 18.369985,28.5 L 18.327114,20.5 L 36.5,20.5 L 36.5,15.746678 z"
       id="path2177"
       style="opacity:0.4;fill:none;fill-opacity:1;fill-rule:nonzero;stroke:url(#linearGradient4362);stroke-width:0.99493349;stroke-linecap:butt;stroke-linejoin:miter;marker:none;marker-start:none;marker-mid:none;marker-end:none;stroke-miterlimit:7;stroke-dasharray:none;stroke-dashoffset:0;stroke-opacity:1;visibility:visible;display:block;overflow:visible" />
  </g>
</svg>
